src/base/static/base/assets/include/rs-plugin/demos/assets/svg/action/ic_alarm_off_24px.svg

<svg height="24" viewBox="0 0 24 24" width="24" xmlns="http://www.w3.org/2000/svg"><path d="m12 6c3.87 0 7 3.13 7 7 0 .84-.16 1.65-.43 2.4l1.52 1.52c.58-1.19.91-2.51.91-3.92 0-4.97-4.03-9-9-9-1.41 0-2.73.33-3.92.91l1.52 1.52c.75-.27 1.56-.43 2.4-.43zm10-.28-4.6-3.86-1.29 1.53 4.6 3.86zm-19.08-3.43-1.27 1.28 1.33 1.33-1.11.93 1.42 1.42 1.11-.94.8.8c-1.37 1.58-2.2 3.64-2.2 5.89 0 4.97 4.02 9 9 9 2.25 0 4.31-.83 5.89-2.2l2.2 2.2 1.27-1.27-17.47-17.46zm13.55 16.1c-1.21 1-2.77 1.61-4.47 1.61-3.87 0-7-3.13-7-7 0-1.7.61-3.26 1.61-4.47zm-8.45-15.11-1.42-1.42-.86.71 1.42 1.42z"/></svg>

<svg xmlns="http://www.w3.org/2000/svg" width="24" height="24" viewBox="0 0 24 24"><path d="M12 6c3.87 0 7 3.13 7 7 0 .84-.16 1.65-.43 2.4l1.52 1.52c.58-1.19.91-2.51.91-3.92 0-4.97-4.03-9-9-9-1.41 0-2.73.33-3.92.91L9.6 6.43C10.35 6.16 11.16 6 12 6zm10-.28l-4.6-3.86-1.29 1.53 4.6 3.86L22 5.72zM2.92 2.29L1.65 3.57 2.98 4.9l-1.11.93 1.42 1.42 1.11-.94.8.8C3.83 8.69 3 10.75 3 13c0 4.97 4.02 9 9 9 2.25 0 4.31-.83 5.89-2.2l2.2 2.2 1.27-1.27L3.89 3.27l-.97-.98zm13.55 16.1C15.26 19.39 13.7 20 12 20c-3.87 0-7-3.13-7-7 0-1.7.61-3.26 1.61-4.47l9.86 9.86zM8.02 3.28L6.6 1.86l-.86.71 1.42 1.42.86-.71z"/></svg>
